X:43
T:Jess Macpharlane
N:page 25 on manuscript
M:C
L:1/8
K:F
V:1
F | A>BAG F2 z F | f>edf {ef}g2 c>c | f>ed>c {c}B3 A | dcf>e {e}d2 c2 | A>BAG F2 z2 |
V:2
F | F>GFC A,2 z D | d>cBd {cd}e2 c>c | d>cB>A {A}G3 F | BAd>c {c}B2 A2 | F>GFC A,2 z2 |
V:1
f>e df {ef}g2 {e} c2 | f>edc {c}B2 A2 | dcf>e Td2 c2 | A>BAG F2 |]
V:2
d>cBd {cd}e2 {c} c2 | d>cBA {A}G2 F2 | BAd>c TB2 A2 | F>GFC A,2 |]

